X: 318
T: Da liaoxian
%%abc-version 2.0
%%abcx-abcm2ps-target-version 5.9.1 (29 Sep 2008)
%%abc-creator hum2abc beta
%%abcx-conversion-date 2013/10/02 07:52:30
%%abc-edited-by Helmut Schaffrath
%%humdrum-veritas 229941992
%%humdrum-veritas-data 118495033
%%continueall 1
%%barnumbers 0
L: 1/8
M: 2/4
K: G
A B A G [I:setbarnb 1]| 
D2D2 | 
A B A G | 
D4 | 
A B A G | 
D4 | 
A A E G | 
A B A G | 
E E A E | 
D3E | 
C4 | 
C B, D B, | 
A,4 |]  



